X:1
T:Lotta's Favorite -- Jig
R:reel
B:Ryan's Mammoth Collection
N: 117 658
Z: Contributed by Ray Davies,  ray:davies99.freeserve.co.uk
M:C|
L:1/8
K:D
A,2|\
D6 (3FE>D | F>AB>d A<FzA | BG2B AF2A | d>AF>D E>DB,>A, |=20
D6 (3FE>D | F>AB>d A<FzA | B>cd>e (3fef (3gab | a>gf>e d2 |:
F>E|\
DB,3  z2B>c | d>ef>g fg (3gag d>f | e>dc>B ^A>GF>E |=20
DB,3  z2B>c | d>ef>g fg (3fgf d>f |1 e>AB>c d2:|2 e>AB>c =
d2z2 |]
